src/svg/slack.svg

<?xml version="1.0" encoding="UTF-8"?>
<svg width="52px" height="52px" viewBox="0 0 52 52" version="1.1" xmlns="http://www.w3.org/2000/svg" xmlns:xlink="http://www.w3.org/1999/xlink">
    <!-- Generator: Sketch 47.1 (45422) - http://www.bohemiancoding.com/sketch -->
    <title>slack</title>
    <desc>Created with Sketch.</desc>
    <defs></defs>
    <g id="Icons" stroke="none" stroke-width="1" fill="none" fill-rule="evenodd">
        <g id="slack">
            <circle id="Oval" fill="#BDC3C7" cx="26" cy="26" r="26"></circle>
            <polygon id="Shape" fill="#FFFFFF" fill-rule="nonzero" points="23 24.5376085 24.4646226 29 29 27.4464802 27.5353774 23 23 24.5621986"></polygon>
            <path d="M35.0981684,28.7397049 L33.0249014,29.4343494 L33.7448783,31.5809475 C34.0355357,32.4475865 33.5648841,33.3875564 32.6969118,33.6795471 C32.4969182,33.7395452 32.316924,33.7688776 32.1169304,33.7635444 C31.4356188,33.7435451 30.8156386,33.3128921 30.5769796,32.6315806 L29.8570026,30.4889824 L25.5771393,31.9196033 L26.295783,34.0635348 C26.5771073,34.9328404 26.1157887,35.8741437 25.2371502,36.1634677 C25.0371565,36.2274657 24.8571623,36.2527982 24.6571687,36.2487984 C23.9771904,36.228799 23.3558769,35.7954795 23.1158846,35.1155012 L22.3972409,32.9569035 L20.315974,33.6555479 C20.1159804,33.715546 19.9359862,33.7368786 19.7359926,33.7368786 C19.054681,33.715546 18.4347008,33.2768933 18.1960418,32.596915 C17.8960513,31.7169431 18.376036,30.7783065 19.2360085,30.4969821 L21.3159421,29.7970045 L19.9999841,25.6798027 L17.9320502,26.3797803 C17.7440562,26.4437783 17.5520623,26.4677775 17.3614018,26.4651109 C16.7014228,26.4437783 16.0614433,26.0144587 15.840117,25.3344804 C15.5614593,24.4678414 16.0201113,23.5292047 16.9014165,23.2358808 L18.98135,22.5425696 L18.261373,20.4026379 C17.981382,19.5306658 18.4427006,18.5906958 19.3226724,18.302705 C20.201311,18.0093811 21.1399477,18.4840326 21.4212721,19.3466717 L22.1399158,21.4906032 L26.3997797,20.0586489 L25.6798027,17.9187173 C25.4011449,17.0587448 25.8597969,16.1187748 26.7317691,15.8201177 C27.6010746,15.5387933 28.5437112,16.0001119 28.831702,16.8747506 L29.551679,19.0360149 L31.6249461,18.3560367 C32.4929183,18.064046 33.4328883,18.5360309 33.724879,19.3946701 C34.0155364,20.2666423 33.5448847,21.2066123 32.679579,21.4946031 L30.6036454,22.1932474 L31.9836013,26.3077826 L34.0515352,25.6198046 C34.9208408,25.3384802 35.862144,25.7997988 36.1514681,26.6797707 C36.4447921,27.5597426 35.9714739,28.4997126 35.1128346,28.7783704 L35.0981684,28.7397049 L35.0981684,28.7397049 Z M40.6593241,21.5985997 C37.3594295,10.6082842 32.5942484,8.03903293 21.5985997,11.3402608 C10.6082842,14.6388221 8.03903293,19.4013366 11.3402608,30.4009852 C14.6401554,41.3939673 19.4013366,43.960552 30.4009852,40.6593241 C41.3939673,37.3594295 43.960552,32.5982483 40.6593241,21.5985997 L40.6593241,21.5985997 Z" id="Shape" fill="#FFFFFF" fill-rule="nonzero"></path>
        </g>
    </g>
</svg>

<svg width="52" height="52" xmlns="http://www.w3.org/2000/svg"><path d="M26 52c14.36 0 26-11.64 26-26S40.36 0 26 0 0 11.64 0 26s11.64 26 26 26zm-3-27.462L24.465 29 29 27.446 27.535 23 23 24.562v-.024zm12.098 4.202l-2.073.694.72 2.147a1.66 1.66 0 0 1-1.048 2.099 1.68 1.68 0 0 1-2.12-1.048l-.72-2.143-4.28 1.43.719 2.145a1.665 1.665 0 0 1-1.639 2.185 1.688 1.688 0 0 1-1.541-1.133l-.719-2.16-2.081.7c-.2.06-.38.08-.58.08a1.692 1.692 0 0 1-1.54-1.14c-.3-.88.18-1.818 1.04-2.099l2.08-.7L20 25.68l-2.068.7c-.188.064-.38.088-.57.085-.66-.021-1.3-.45-1.522-1.13a1.667 1.667 0 0 1 1.061-2.1l2.08-.692-.72-2.14a1.664 1.664 0 0 1 1.062-2.1 1.652 1.652 0 0 1 2.098 1.044l.719 2.144 4.26-1.432-.72-2.14c-.279-.86.18-1.8 1.052-2.099.87-.281 1.812.18 2.1 1.055l.72 2.161 2.073-.68a1.663 1.663 0 0 1 2.1 1.039c.29.872-.18 1.812-1.045 2.1l-2.076.698 1.38 4.115 2.068-.688c.869-.282 1.81.18 2.1 1.06.293.88-.18 1.82-1.04 2.098l-.014-.038zm5.561-7.141c-3.3-10.99-8.065-13.56-19.06-10.259-10.99 3.299-13.56 8.061-10.259 19.061 3.3 10.993 8.061 13.56 19.061 10.258 10.993-3.3 13.56-8.06 10.258-19.06z" fill="#D8D8D8" fill-rule="evenodd"/></svg>
